X: 20276
T: Joe's Lost E
R: jig
M: 6/8
K: Emajor
|:EGB cBc|efg fec|f2c e2c|BGB cBG|
EGB cBc|efg fec|f2c e2c|1 BGF E2E:|2 BGF EGB||
|:e2e dee|cee B2B|cBG BGF|GBc egf|
e2e dee|cee B2B|cBG B2c|1 BGF EGB:|2 BGF E2E||

